X:1
T:Jar Down
M:2/4
L:1/8
R:Reel
B:Elias Howe – Musician’s Omnibus Nos. 6 & 7 (Boston, 1880-1882, p. 636)
B:  http://ks4.imslp.net/files/imglnks/usimg/c/c7/IMSLP601433-PMLP562790-ONeill_Rare_Medium_M40_M8_v6.7_text.pdf
Z:AK/Fiddler’s Companion
K:D
F/G/|A/^G/A/B/ A/=G/F/A/|d/c/d/e/ d/c/B/A/|G/F/G/A/ G/c/e/d/|cAA F/G/|
A/^G/A/B/ A/=G/F/A/|d/c/d/e/ d/c/B/A/|G/F/G/A/ G/c/e/d/|c/A/B/c/ d:|
|:A/G/|F/A/^G/A/ B/A/G/A/|B/d/c/d/ e/d/c/d/|c/B/A/^G/ A/=G/F/E/|F/G/A/B/ A2|
F/A/^G/A/ B/A/G/A/|B/d/c/d/ e/d/c/d/|c/B/A/^G/ A/=G/F/E/|FDD:|]

